X:178
T:Delia
C:Samuel Howard
M:4/4
L:1/8
S:Colin Hume's website,  colinhume.com  - chords can also be printed below the stave.
Q:1/4=96
K:D
%%textfont Times-Roman-Bold 20
%%center Play ABA x 3
P:A
!segno! "D"d2 d/e/f "A/C#"e2 ac | "Bm"d2 "Em"g<e "A7"d2 c2 | "D"dA "D7"B=c "G"B^c "D/F#"d2 | "Em"e/f/g "D"f2 "A7"e4 |\
"D"d2 d/e/f "A/C#"e2 ac | "Bm"d2 "Em"g<e "A7"d2 c2 | "D"dA "D7"B=c "Em"B2 ge | "A7"d2 c2 "D"d4 ||
P:B
"A7"c2 "D"d/e/f "A"e2 dc | "Bm"d2 "E7"cB "A"c4 | "A"ec BA "D"F^G "A"A2 | "Bm"d2 "A"c2 "E7"B4 |\
"A"e2 "D"df "A"e2 dc | "Bm"d2 "E7"bd "A"c4 | "A"ec BA "Bm"F2 dB | "E7"A2 ^G2 "A"!D.S.! A4 ||

